X: 1676
T: Lollipop Schottische
B: australian traditional tunes wiki
M:4/4
L:1/8
R: Schottische
Q: 1/4=100
K:G
V:1 
||"G"B<dG2G>BD2|"D7"A<c F>D"C"E4|"D7"F<AD2F<AD2|"G"G>B D>GB2B2|
"G"B<dG2G>BD2|"D7"A<c F>D"C"E4|"D7"F<AD2F<A (3DEF|"G"G2D2G4||
||"G"G>G (3GABd3d|"Am"e>d (3cBA"C"E4|"D7"F>G A>Bc3d|"G"e>e (3dedB4|
G>G (3GABd3d|"Am"e>d (3cBA"C"E4|"D7"D>E F>G A>B (3cBA|"G"G2 (3AGFG4||
% abcbook-tune_id 6342d53ac3fa1c68059a30d6


% abcbook-boost 0
% abcbook-tablature 
% abcbook-transpose 
% abcbook-lastupdated 1665324377474
% abcbook-soundfonts 
% abcbook-repeats 1
% NFF Book 2010

